X: 177
T:Drummond Castle
G:jig
M:6/8
L:1/8
Q:3/8=120
K:AMin
% dorian/minor hexatonic
E|ABA a3 |age g3 |c2c  edc|Bdg dBG|
  ABA a3 |age g3 |e>ge deg|edB A2:|
B|c2c cec|d2d ded|c2c  edc|Bdg dBG|
  c2c edc|deg a2g|ege  deg|edB A2:|


3. The Dorian/Minor/Phrygian Pentatonic Mode
== =========================================

The DORIAN/MINOR/PHRYGIAN PENTATONIC mode is what you get by playing on the
black notes of a piano taking E flat/D sharp as the home note.  Tunes in
this mode could be seen as being dorian, minor or phrygian; the second and
sixth are omitted.  Its interval sequence is mTTmT.  In A, it's Acdega.  It
is sometimes called "pentatonic minor".  On the pipes it can be played as
the E-mode in the CF-gap pitch set or as the B-mode in the GC-gap pitch set.
In sol-fa it can start on re, la or mi.  In Bronson's scheme it's pi-4.  In
the Hungarian system it's la-pentatonic.

